locker/lockscript/lock.svg

<svg xmlns="http://www.w3.org/2000/svg" viewBox="-1 -1 10 10" width="3in" height="3in">
<path d="m1 0c-.554 0-1 .446-1 1v6c0 .554.446 1 1 1h6c.554 0 1-.446 1-1v-6c0-.554-.446-1-1-1h-6m3 1.125c.969 0 1.758.787 1.758 1.756v.715c.138.029.242.152.242.299v2.676c0 .168-.136.305-.305.305h-3.391c-.169 0-.305-.136-.305-.305v-2.676c0-.147.104-.27.242-.299v-.715c0-.969.789-1.756 1.758-1.756m0 .611c-.632 0-1.146.513-1.146 1.145v.709h2.293v-.709c0-.632-.515-1.145-1.146-1.145m0 2.793c-.237 0-.43.191-.43.428 0 .126.055.238.141.316l-.113.604c-.006.034.015.059.049.059h.715c.034 0 .055-.025.049-.059l-.115-.609c.082-.078.135-.188.135-.311 0-.237-.193-.428-.43-.428" fill="#6d6d6d" stroke="#ffffff" stroke-width="0.1"/>
</svg>

<?xml version="1.0" encoding="UTF-8" standalone="no"?>
<svg
   xmlns:dc="http://purl.org/dc/elements/1.1/"
   xmlns:cc="http://creativecommons.org/ns#"
   xmlns:rdf="http://www.w3.org/1999/02/22-rdf-syntax-ns#"
   xmlns:svg="http://www.w3.org/2000/svg"
   xmlns="http://www.w3.org/2000/svg"
   xmlns:sodipodi="http://sodipodi.sourceforge.net/DTD/sodipodi-0.dtd"
   xmlns:inkscape="http://www.inkscape.org/namespaces/inkscape"
   viewBox="-1 -1 10 10"
   width="3in"
   height="3in"
   version="1.1"
   id="svg3779"
   sodipodi:docname="lock.svg"
   inkscape:version="0.92.3 (2405546, 2018-03-11)"
   inkscape:export-filename="/home/linus/dotfiles/locker/lockscript/lock.png"
   inkscape:export-xdpi="284.48346"
   inkscape:export-ydpi="284.48346">
  <metadata
     id="metadata3785">
    <rdf:RDF>
      <cc:Work
         rdf:about="">
        <dc:format>image/svg+xml</dc:format>
        <dc:type
           rdf:resource="http://purl.org/dc/dcmitype/StillImage" />
      </cc:Work>
    </rdf:RDF>
  </metadata>
  <defs
     id="defs3783" />
  <sodipodi:namedview
     pagecolor="#ffffff"
     bordercolor="#666666"
     borderopacity="1"
     objecttolerance="10"
     gridtolerance="10"
     guidetolerance="10"
     inkscape:pageopacity="0"
     inkscape:pageshadow="2"
     inkscape:window-width="3836"
     inkscape:window-height="2109"
     id="namedview3781"
     showgrid="false"
     inkscape:zoom="6.4722222"
     inkscape:cx="84.086183"
     inkscape:cy="111.87461"
     inkscape:window-x="2560"
     inkscape:window-y="0"
     inkscape:window-maximized="0"
     inkscape:current-layer="svg3779" />
  <path
     d="m 4,1.125 c 0.969,0 1.758,0.787 1.758,1.756 V 3.596 C 5.896,3.625 6,3.748 6,3.895 V 6.571 C 6,6.739 5.864,6.876 5.695,6.876 H 2.304 C 2.135,6.876 1.999,6.74 1.999,6.571 V 3.895 c 0,-0.147 0.104,-0.27 0.242,-0.299 V 2.881 c 0,-0.969 0.789,-1.756 1.758,-1.756 m 0,0.611 c -0.632,0 -1.146,0.513 -1.146,1.145 V 3.59 H 5.146 V 2.881 C 5.146,2.249 4.631,1.736 4,1.736 m 0,2.793 c -0.237,0 -0.43,0.191 -0.43,0.428 0,0.126 0.055,0.238 0.141,0.316 L 3.598,5.877 C 3.592,5.911 3.613,5.936 3.647,5.936 h 0.715 c 0.034,0 0.055,-0.025 0.049,-0.059 L 4.296,5.268 C 4.378,5.19 4.431,5.08 4.431,4.957 4.431,4.72 4.238,4.529 4.001,4.529"
     id="path3777"
     inkscape:connector-curvature="0"
     style="fill:#d4d4d4;stroke:#181818;stroke-width:0.1"
     sodipodi:nodetypes="cscsssssscsccsccsccsccssccsc"
     inkscape:export-xdpi="200"
     inkscape:export-ydpi="200" />
</svg>
